X:355
T:Virginia, The
M:C|
L:1/8
Q:200
S:THSP
R:reel
D:
K:D
"G"DBBA ~B3A|BAdB AFEF|"D"DF~F2 A3B|AFBF AFEF|
"G"DBBA ~B3A|BAdB ABde|"D"~f3e defe|dBAF "G"BE~E2:|
|:"D"defe d2dA|BAFA dAFA|defe defg|"G"afbf "A"afeg|
"D"fd~d2 edBd|AF~F2 ABde|~f3e defe|"G"dBAF "A"BE~E2:||
